X:45
T:Rózsa, rózsa, labdarózsa levele
M:4/4
L:1/4
K:F
DFAc | BGA>F | E<D D z |
A<A G F | EDFA | A<E E z |
A<A G>F | E<D FA | A<E G2 |
DF A<c | BGA>F | E<D D z |

